X:2249
T:Soldier's joy
O:ireland
C:anon.
R:Reel
Z:Transcribed by Frank Nordberg - http://www.musicaviva.com
%abc/eire.abc
M:C|
L:1/8
K:F
AB|cAFA cAFA|c2 f2 f2 ed|cAFA cAFA|B2 G2 G2 AB|
cAFA cAFA|c2 f2 f2 b2|ac'af gbge|f2 f2 f2::b2|
afaf ac'ba|gege gbag|afaf ac'ba|gfed c2 b2|
afaf ac'ba|gege gbag|ac'af gbge|f2 f2 f2:|
